fa/svgs/regular/circle-user.svg

<svg xmlns="http://www.w3.org/2000/svg" viewBox="0 0 512 512"><!--! Font Awesome Free 6.1.1 by @fontawesome - https://fontawesome.com License - https://fontawesome.com/license/free (Icons: CC BY 4.0, Fonts: SIL OFL 1.1, Code: MIT License) Copyright 2022 Fonticons, Inc.--><path d="M256 112c-48.6 0-88 39.4-88 88s39.4 88 88 88 88-39.4 88-88-39.4-88-88-88zm0 128c-22.06 0-40-17.95-40-40 0-22.1 17.9-40 40-40s40 17.94 40 40c0 22.1-17.9 40-40 40zm0-240C114.6 0 0 114.6 0 256s114.6 256 256 256 256-114.6 256-256S397.4 0 256 0zm0 464c-46.73 0-89.76-15.68-124.5-41.79C148.8 389 182.4 368 220.2 368h71.69c37.75 0 71.31 21.01 88.68 54.21C345.8 448.3 302.7 464 256 464zm160.2-75.5c-27-42.2-73-68.5-124.4-68.5h-71.6c-51.36 0-97.35 26.25-124.4 68.48C65.96 352.5 48 306.3 48 256c0-114.7 93.31-208 208-208s208 93.31 208 208c0 50.3-18 96.5-47.8 132.5z"/></svg>

<svg xmlns="http://www.w3.org/2000/svg" viewBox="0 0 512 512"><!--! Font Awesome Free 6.2.1 by @fontawesome - https://fontawesome.com License - https://fontawesome.com/license/free (Icons: CC BY 4.0, Fonts: SIL OFL 1.1, Code: MIT License) Copyright 2022 Fonticons, Inc. --><path d="M256 112c-48.6 0-88 39.4-88 88C168 248.6 207.4 288 256 288s88-39.4 88-88C344 151.4 304.6 112 256 112zM256 240c-22.06 0-40-17.95-40-40C216 177.9 233.9 160 256 160s40 17.94 40 40C296 222.1 278.1 240 256 240zM256 0C114.6 0 0 114.6 0 256s114.6 256 256 256s256-114.6 256-256S397.4 0 256 0zM256 464c-46.73 0-89.76-15.68-124.5-41.79C148.8 389 182.4 368 220.2 368h71.69c37.75 0 71.31 21.01 88.68 54.21C345.8 448.3 302.7 464 256 464zM416.2 388.5C389.2 346.3 343.2 320 291.8 320H220.2c-51.36 0-97.35 26.25-124.4 68.48C65.96 352.5 48 306.3 48 256c0-114.7 93.31-208 208-208s208 93.31 208 208C464 306.3 446 352.5 416.2 388.5z"/></svg>
